!!!OTL: Die Schlangenkoechin Ohne Text
!!!ARE: Europa, Osteuropa, Tschechoslowakei, Boehmen
!!!ARD1: Europa%Osteuropa%Tschechoslowakei@Boehmen#?
!!!ARL1: ? / ?
!!!ARD2: Europa%Osteuropa%Tschechoslowakei@
!!!ARL2: 49.75/15@
!!!YOR: 4, S. 206
!!    1505 gedruckt
!!!SCT: Q1079D
!!!YEM: Copyright 1995, estate of Helmut Schaffrath.
**kern
*ICvox
*Ivox
*M6/8
*k[f#c#]
*D:
=1
{4d
8d
4f#
8g
=2
4a
8a
4.a}
=3
{4b
8cc#
4dd
8cc#
=4
4.b
4.a}
=5
{4dd
8dd
4a
8a
=6
4b
8b
4.a}
=7
{4.a
4.a
=8
4b
8b
4.a}
=9
{4a
8g
4f#
8e
=10
4.d
4.d}
==
!!!AGN: geistlich; Reigen - Tanz
!! Melodievergleich zu Q0079E ff, anderes Lied.
!!!ONB: ESAC (Essen Associative Code) Database: BALLADE
!!!AMT: compound duple
!!!AIN: vox
!!!EED: Helmut Schaffrath
!!!EEV: 1.0
*-
!!!title: @{OTL} [@{SCT}]
